X:39
T:38b Windham
C:Daniel Read, 1785
A:Isaac Watts, 1709
L:1/4
M:4/4
Q:1/4=100
P:A4
K:Emin
V:1 clef=treble
%%MIDI program 1 73 % Piccolo
V:2 clef=treble 
%%MIDI program 2 69 % Oboe
V:3 clef=treble-8
%%MIDI program 3 67 % Tenor Sax
V:4 clef=bass
%%MIDI program 4 71 % Bassoon
[P:A]
%
[V:1]
B4|BAG2|G2BB|B4-|B2 B2|Bde2|d2dc|B4-|B2 B2|BBB2|B2cB|B4-|B2 e2|BA(B/c/) (d/c/)|B2B2|B4|]
w: 1.~Broad is the road that leads to death_  And thou-sands walk to-ge-ther there;_
+: But wis-dom shows a nar-row path,_ With here and there_ a_ tra-vel-ler.
%
[V:2]
E4|EDD2|E2^DD|E4|z2 E2|EDG2|G2DE|F4|z2 D2|B,DD2|E2EF|G4|z2 E2|GFEF|E2^D2|E4|]
w: 2.~"De-ny thy-self and take thy cross," Is the Re-deem-er's great com-mand
+: Na-ture must count her gold but dross, If she would gain this heav'n-ly land.
%
[V:3]
E4|GAB2|B2GF|E4|z2 E2|GFG2|B2AG|F4|z2 F2|GAB2|e2 e^d|e4|z2 B2|BcBA|G2F2|E4|]
w: 3.~The fear-ful soul that tires and faints, And walks the ways of God no more,
+: Is but es-teemed al-most a saint, And makes his own des-truc-tion sure.
%
[V:4]
E,4|E,F,G,2|E,2B,,B,,|E,4-|E,2 E,2|E,B,,E,2|G,2F,E,|B,,4-|B,,2 B,,2|E,D,G,2|E,2A,B,|E,4-|E,2 E,2|E,F,G,D,|E,2B,,2|E,4|]
w: 4.~Lord, let not all my hopes be vain,_ Cre-ate my heart en-tire-ly new_
+: Which hy-po-crites could ne'er at-tain,_ Which false a-pos-tates ne-ver knew._


